assets/img/icons/socials/twitter.svg

<svg width="24" height="24" viewBox="0 0 24 24" version="1.1" xmlns="http://www.w3.org/2000/svg" xmlns:xlink="http://www.w3.org/1999/xlink">
<title>twitter</title>
<desc>Created using Figma</desc>
<g id="Canvas" transform="translate(465 -1224)">
<g id="ic/24/social/twitter">
<g id="Shape">
<use xlink:href="#path0_fill" transform="translate(-462 1228.5)" fill="#FFFFFF"/>
</g>
<mask id="mask0_outline" mask-type="alpha">
<g id="Shape">
<use xlink:href="#path0_fill" transform="translate(-462 1228.5)" fill="#FFFFFF"/>
</g>
</mask>
</g>
</g>
<defs>
<path id="path0_fill" fill-rule="evenodd" d="M 17.5302 1.59489C 17.6525 1.56364 17.8052 1.59489 17.8969 1.68864C 17.9885 1.78239 18.0191 1.93864 17.9886 2.06364C 17.7136 2.96977 17.1637 3.62602 16.4915 3.96977L 16.4915 4.0634C 16.4915 10.0942 12.092 15 6.71484 15C 3.69018 15 1.24606 14.4688 0.146174 13.5627C 0.0239815 13.4377 -0.0371452 13.2814 0.0239815 13.0939C 0.0850472 12.9377 0.237818 12.8127 0.421137 12.8127C 2.22372 12.7814 3.38467 12.344 4.27069 11.8128C 2.55975 11.594 1.49041 10.7504 0.940516 9.15678C 0.879389 9.00053 0.940516 8.84428 1.06271 8.75053C 1.1849 8.65678 1.36822 8.65678 1.49041 8.71928C 1.94869 9.03178 2.40698 9.09428 2.9569 9.09428C 1.79595 8.37566 0.726618 7.18816 0.298914 5.71953C 0.268336 5.56328 0.329462 5.3759 0.451655 5.3134C 0.604426 5.21965 0.757197 5.2509 0.879389 5.34465C 1.21548 5.62578 1.58212 5.81328 2.13201 5.90703C 0.940516 4.65715 0.20727 2.81352 1.24603 0.782516L 1.42935 0.407516L 1.7348 0.720016C 3.62905 2.75102 5.37051 3.68852 8.54791 4.3134L 8.54791 4.1884C 8.54791 1.90739 10.2894 0.0325162 12.4586 0.0012662C 13.314 0.0012662 14.5055 0.626266 14.9944 0.907516C 15.0061 0.907516 15.0177 0.912033 15.0277 0.915939C 15.0438 0.922287 15.0555 0.926803 15.0555 0.907516C 15.6666 0.720016 16.3998 0.407516 17.2552 0.0325162C 17.3775 -0.0299838 17.5302 0.0012662 17.6219 0.0950162C 17.7136 0.188766 17.7441 0.313766 17.683 0.470016C 17.5302 0.907516 17.2858 1.37627 16.9192 1.81364L 17.5302 1.59489ZM 15.7354 3.73784L 15.9133 3.67741C 16.4764 3.46623 16.8025 3.01347 17.01 2.62126L 15.854 3.0136C 15.7058 3.0739 15.528 3.0136 15.4687 2.86272C 15.4094 2.71172 15.4391 2.53069 15.5576 2.44011C 16.0318 2.04778 16.3875 1.62529 16.6543 1.17265C 16.0615 1.41399 15.528 1.62529 15.0834 1.77617C 14.9055 1.83647 14.7277 1.80632 14.5499 1.71587L 14.5316 1.70573C 14.1836 1.51225 13.0853 0.901413 12.4158 0.931198C 10.6374 0.961349 9.21465 2.50053 9.21465 4.37163L 9.21465 5.2166L 8.85894 5.1563C 5.59857 4.55266 3.79049 3.67741 1.89352 1.77617C 1.00433 4.06975 2.84201 5.66936 3.46444 6.12199L 4.20541 6.66521L 3.28655 6.66521C 2.69375 6.66521 2.04168 6.6049 1.44888 6.3333C 2.10098 7.72148 3.43481 8.7476 4.56112 9.07964L 4.47219 9.68315C 4.2351 9.68315 3.99795 9.68315 3.76086 9.7133C 3.13839 9.74358 2.57525 9.74358 2.04171 9.56242C 2.63452 10.7093 3.67193 11.1922 5.36141 11.1922L 6.25061 11.1922L 5.50961 11.7354C 4.59075 12.4596 3.40515 13.1236 1.35998 13.2746C 2.3381 13.7574 4.14611 14.2101 6.84338 14.2101C 11.4647 14.2101 15.7354 9.49907 15.7354 4.2509L 15.7354 3.73784Z"/>
</defs>
</svg>

<svg width="24" height="24" xmlns="http://www.w3.org/2000/svg" xmlns:xlink="http://www.w3.org/1999/xlink"><use xlink:href="#path0_fill" transform="translate(3 4.5)" fill="#FFF"/><defs><path id="path0_fill" fill-rule="evenodd" d="M17.5302 1.5949c.1223-.0313.275 0 .3667.0937.0916.0938.1222.25.0917.375-.275.9062-.8249 1.5624-1.4971 1.9062v.0936C16.4915 10.0942 12.092 15 6.7148 15c-3.0246 0-5.4687-.5312-6.5686-1.4373-.1222-.125-.1833-.2813-.1222-.4688.061-.1562.2138-.2812.3971-.2812 1.8026-.0313 2.9636-.4687 3.8496-.9999-1.711-.2188-2.7803-1.0624-3.3302-2.656-.0611-.1563 0-.3125.1222-.4063.1222-.0937.3055-.0937.4277-.0312.4583.3125.9166.375 1.4665.375C1.7959 8.3757.7266 7.1882.2989 5.7195c-.0306-.1562.0306-.3436.1528-.4061.1527-.0938.3055-.0625.4277.0313.336.281.7027.4686 1.2526.5623C.9405 4.6571.2073 2.8135 1.246.7825l.1833-.375.3055.3125C3.629 2.751 5.3705 3.6885 8.5479 4.3134v-.125c0-2.281 1.7415-4.1559 3.9107-4.1871.8554 0 2.0469.625 2.5358.9062a.0943.0943 0 0 1 .0333.0084c.0161.0064.0278.0109.0278-.0084.6111-.1875 1.3443-.5 2.1997-.875.1223-.0625.275-.0312.3667.0625.0917.0938.1222.2188.0611.375a4.3062 4.3062 0 0 1-.7638 1.3436l.611-.2187zm-1.7948 2.143l.1779-.0605c.5631-.2112.8892-.664 1.0967-1.0561l-1.156.3923c-.1482.0603-.326 0-.3853-.1509-.0593-.151-.0296-.332.0889-.4226.4742-.3923.8299-.8148 1.0967-1.2675-.5928.2414-1.1263.4527-1.5709.6036-.1779.0603-.3557.0301-.5335-.0603l-.0183-.0102c-.348-.1934-1.4463-.8043-2.1158-.7745-1.7784.0301-3.2012 1.5693-3.2012 3.4404v.845l-.3557-.0603c-3.2603-.6036-5.0684-1.4789-6.9654-3.3801-.8892 2.2935.9485 3.8932 1.571 4.3458l.741.5432h-.919c-.5928 0-1.2448-.0603-1.8376-.3319.652 1.3882 1.986 2.4143 3.1122 2.7463l-.089.6036c-.237 0-.4742 0-.7112.0301-.6225.0303-1.1856.0303-1.7192-.1509.5928 1.1469 1.6302 1.6298 3.3197 1.6298h.8892l-.741.5432c-.9188.7242-2.1044 1.3882-4.1496 1.5392.9781.4828 2.7861.9355 5.4834.9355 4.6213 0 8.892-4.711 8.892-9.9592v-.513z"/></defs></svg>
